X:270
T: Jim Keefe's #2
S: "Music of Ireland - The Big Session" (DJ Taylor)
Z: B.Black
L: 1/8
M: 2/4
R: polka
K: G
D|G2 G>A|B>A B/c/d| G>A BG|AG ED|
G2 G>A|B>A B/c/d|e/f/g f>g|AG G :|
A|Bd d>f|gf ed|Bd de/f/|gB A>G|
Bd d>f|gf ed|B/c/d A>c|BG G :|
